public/illustrations/newspaper-black.svg

<svg width="71" height="55" viewBox="0 0 71 55" fill="none" xmlns="http://www.w3.org/2000/svg">
<path d="M50.0618 5.6517C51.2208 4.99584 52.2514 4.38856 53.3029 3.81946C55.3537 2.70554 57.4185 1.61938 59.4694 0.505458C60.4341 -0.015066 61.26 0.158444 62.1136 0.810833C64.472 2.64546 66.4003 4.97406 67.763 7.63316C68.657 9.39789 69.3139 11.2729 69.7167 13.2097C70.0393 14.5973 70.2275 16.0127 70.2789 17.4364C70.2789 18.1928 70.4246 18.9493 70.3969 19.7024C70.3505 21.3896 70.1999 23.0724 69.9458 24.741C69.7783 25.9161 69.5195 27.0763 69.1719 28.2112C69.1033 28.4623 68.9839 28.6966 68.8209 28.8996C68.6579 29.1026 68.4549 29.2698 68.2246 29.391C67.1488 29.9706 66.0904 30.5917 65.0181 31.1851C60.0951 33.9127 55.1687 36.6367 50.2387 39.3573C46.4632 41.4394 42.6738 43.5042 38.8948 45.6036C34.099 48.2479 29.3033 50.8968 24.5075 53.5503C23.8135 53.9251 23.1646 54.3484 22.3109 54.3172C21.9257 54.3172 21.5336 54.5358 21.1414 54.633C19.7534 54.98 18.4174 54.744 17.0883 54.3901C15.0099 53.7964 13.0689 52.7988 11.3764 51.4543C8.15286 48.9691 5.47803 45.8442 3.52 42.2757C2.04522 39.6627 1.02439 36.8185 0.500957 33.8641C0.317007 32.8543 0.386163 31.8146 0.702232 30.8381C1.06232 29.7647 1.48051 28.7117 1.95495 27.6837C2.14888 27.3595 2.42872 27.0953 2.76351 26.9203C4.23138 26.025 5.7166 25.154 7.19836 24.283C10.0115 22.6312 12.827 20.9805 15.6447 19.3311C18.5342 17.6353 21.426 15.9349 24.3201 14.2299L38.9399 5.63088L45.3528 1.87964C45.4799 1.80686 45.6108 1.74083 45.7449 1.68184C46.4632 1.33482 46.9629 1.49099 47.4175 2.10867C48.2712 3.27118 49.1456 4.43021 50.0618 5.6517ZM60.3785 2.55285C59.3375 3.11502 58.4248 3.5939 57.5087 4.12136C55.8014 5.07218 54.0906 6.0126 52.3972 6.98771C49.4406 8.68809 46.4979 10.4128 43.5483 12.1235L33.9463 17.6966C31.2743 19.2443 28.6127 20.8198 25.9233 22.3362C23.1472 23.8978 20.3711 25.4385 17.7129 27.1667C17.2688 27.4547 16.835 27.7601 16.3492 28.0897C16.8697 28.3882 17.3139 28.6103 17.7199 28.8879C19.1618 29.8909 20.3946 31.165 21.3497 32.6391C22.9493 35.1127 24.1114 37.843 24.7851 40.7107C25.1321 42.0814 25.264 43.5076 25.4791 44.9096C25.4832 45.0263 25.4716 45.143 25.4445 45.2566C25.4132 45.5446 25.375 45.8327 25.3542 46.1207C25.2814 47.1617 25.2224 48.2028 25.1391 49.2438C25.1183 49.5527 25.035 49.858 24.9621 50.2849C25.4542 50.1539 25.9357 49.9857 26.4022 49.7817C28.2483 48.7858 30.0702 47.7482 31.9094 46.7384C34.5918 45.2635 37.2777 43.8026 39.9601 42.3278C45.0497 39.5378 50.1393 36.7455 55.2288 33.9508C58.6573 32.0735 62.0893 30.2135 65.5213 28.3396C66.0523 28.0481 66.5623 27.7358 67.0412 27.4686C67.1141 27.0417 67.1592 26.6982 67.2286 26.3581C67.6568 24.3987 67.9065 22.4044 67.9747 20.3999C68.0087 19.1759 67.9682 17.951 67.8533 16.7319C67.6505 14.5941 67.1615 12.4932 66.3992 10.4856C65.4226 7.87375 63.8354 5.53335 61.7701 3.65983C61.3467 3.27464 60.8678 2.93804 60.382 2.55285H60.3785ZM45.7761 4.44756C45.4291 4.628 45.1515 4.76681 44.8808 4.92644C41.3898 6.98077 37.8989 9.03626 34.4079 11.0929C30.2437 13.5405 26.0702 15.9847 21.8875 18.4253C17.7048 20.866 13.5407 23.3194 9.39497 25.7856C7.81258 26.719 6.22671 27.6421 4.65473 28.586C4.37906 28.7404 4.14182 28.9551 3.96069 29.2141C3.45477 30.0155 3.11943 30.9125 2.97554 31.8493C2.83165 32.7861 2.88232 33.7424 3.1244 34.6587C3.71443 37.1521 4.67723 39.5422 5.98033 41.7483C7.68951 44.6816 9.93844 47.2649 12.6083 49.3618C14.4579 50.8089 16.4672 51.9679 18.8546 52.2906C19.8919 52.4733 20.9604 52.301 21.8875 51.8013C22.6133 50.2607 22.9935 48.5801 23.0015 46.8772C22.8071 46.9847 22.7065 47.0333 22.6093 47.0923C21.5405 47.7447 20.4682 48.3936 19.4064 49.0599C19.0459 49.3124 18.6102 49.4347 18.171 49.4069C18.0046 49.402 17.8418 49.3573 17.6962 49.2764C17.5506 49.1956 17.4266 49.081 17.3345 48.9423C17.2424 48.8036 17.1848 48.6449 17.1668 48.4793C17.1487 48.3138 17.1706 48.1464 17.2306 47.9911C17.3624 47.6013 17.6431 47.2794 18.0114 47.0958L20.5411 45.5377L22.9147 44.0663C22.8418 42.3149 22.392 40.5999 21.596 39.0381C21.5502 39.0436 21.505 39.0529 21.4607 39.0658L18.0253 41.1479C17.1022 41.7066 16.1861 42.2723 15.2491 42.8275C14.7598 43.1224 14.2428 43.3064 13.698 42.9594C12.9687 42.5317 12.3058 41.9998 11.7304 41.3804C10.9932 40.5493 10.3828 39.6138 9.91897 38.6043C9.82824 38.4404 9.72498 38.2838 9.61012 38.1358C9.21452 38.3961 8.89181 38.6494 8.53438 38.8299C8.32576 38.934 8.08978 38.9702 7.85954 38.9335C7.6293 38.8968 7.41632 38.7889 7.25042 38.6251C6.71254 38.122 6.74723 37.3516 7.38921 36.7894C7.89238 36.3522 8.43026 35.967 8.9716 35.561C8.9716 35.4985 8.98897 35.443 8.98897 35.384C8.9862 35.2968 8.97808 35.2099 8.96468 35.1237C8.6644 33.5925 8.9718 32.0044 9.8218 30.6958C10.7307 29.302 11.9109 28.1053 13.292 27.1771C13.7223 26.8786 14.1769 26.608 14.621 26.3338C16.776 24.9944 18.9032 23.6098 21.0894 22.3327C24.9656 20.0702 28.8869 17.884 32.7804 15.6492C37.6085 12.8731 42.432 10.09 47.2509 7.30003C47.4418 7.18898 47.6188 7.05365 47.8617 6.89055L45.7761 4.44756ZM14.5343 40.4678L20.8014 36.6506C20.5238 36.078 20.2947 35.5436 20.0102 35.037C19.7256 34.5303 19.3925 34.0758 19.0698 33.583C18.5978 33.7808 18.1814 33.9821 17.7442 34.1313C17.4458 34.2395 17.1315 34.297 16.8142 34.3013C16.5653 34.2907 16.3291 34.1884 16.151 34.0142C15.9729 33.84 15.8655 33.6061 15.8495 33.3574C15.8166 33.0949 15.8657 32.8287 15.9899 32.5952C16.1142 32.3616 16.3075 32.1722 16.5435 32.0527C16.7795 31.9138 17.0328 31.7993 17.4076 31.6085C16.8878 31.2157 16.3468 30.852 15.787 30.5188C15.2047 30.2488 14.55 30.1772 13.9231 30.3151C13.2963 30.453 12.732 30.7928 12.3168 31.2823C11.8749 31.8264 11.5605 32.4626 11.3965 33.1442C11.2326 33.8257 11.2234 34.5353 11.3695 35.2209C11.6598 36.7717 12.3192 38.2297 13.292 39.4719C13.5844 39.9322 14.0214 40.2825 14.5343 40.4678Z" fill="#161616"/>
<path d="M14.5351 40.4676C14.0224 40.2856 13.5844 39.9391 13.2893 39.4821C12.3165 38.2399 11.6571 36.7819 11.3668 35.2311C11.2207 34.5455 11.2299 33.8359 11.3939 33.1544C11.5578 32.4728 11.8723 31.8366 12.3142 31.2925C12.7293 30.803 13.2936 30.4632 13.9204 30.3253C14.5473 30.1874 15.2021 30.259 15.7843 30.5291C16.3442 30.8622 16.8852 31.2259 17.4049 31.6187C17.0301 31.8095 16.7768 31.9241 16.5408 32.0629C16.3048 32.1824 16.1115 32.3718 15.9872 32.6054C15.863 32.8389 15.814 33.1052 15.8468 33.3676C15.8628 33.6163 15.9702 33.8502 16.1483 34.0244C16.3264 34.1987 16.5626 34.3009 16.8115 34.3115C17.1288 34.3072 17.4432 34.2497 17.7415 34.1415C18.1787 33.9923 18.5952 33.7945 19.0671 33.5932C19.3898 34.086 19.7264 34.551 20.0075 35.0472C20.2886 35.5434 20.5211 36.0883 20.7987 36.6608L14.5351 40.4676Z" fill="white"/>
<path d="M30.8848 40.6654C30.6585 40.6824 30.4325 40.6292 30.2375 40.5131C30.0425 40.397 29.888 40.2235 29.7952 40.0165C29.6952 39.8349 29.6516 39.6275 29.6702 39.421C29.6887 39.2145 29.7685 39.0183 29.8993 38.8574C30.1201 38.5894 30.3898 38.3656 30.694 38.1981C33.9351 36.4144 37.1901 34.6551 40.4382 32.8818L54.3951 25.2475C56.9769 23.8351 59.5587 22.4228 62.1509 21.0312C62.4374 20.8929 62.7525 20.8239 63.0705 20.83C63.2926 20.8249 63.5098 20.8947 63.6873 21.0282C63.8649 21.1616 63.9923 21.3509 64.0491 21.5656C64.1367 21.769 64.1593 21.9945 64.114 22.2112C64.0687 22.428 63.9575 22.6255 63.7958 22.7767C63.6009 22.951 63.3866 23.1023 63.1573 23.2278C60.8091 24.5234 58.4576 25.8119 56.1025 27.0936C51.2952 29.7193 46.4878 32.3463 41.6805 34.9743C38.7656 36.5636 35.8472 38.1495 32.9253 39.7319C32.5158 39.954 32.1202 40.2004 31.7003 40.4016C31.4345 40.5071 31.1621 40.5952 30.8848 40.6654Z" fill="#161616"/>
<path d="M34.1059 43.6848C33.8908 43.6643 33.6842 43.59 33.5053 43.4687C33.3264 43.3474 33.1809 43.183 33.0822 42.9907C32.9658 42.8202 32.9086 42.6162 32.9192 42.4099C32.9299 42.2037 33.0079 42.0067 33.1412 41.8491C33.3872 41.5702 33.681 41.3375 34.0088 41.162C37.1562 39.3887 40.3175 37.6398 43.4684 35.8769C47.1537 33.8156 50.8367 31.7486 54.5174 29.6757L60.6214 26.268C60.6977 26.2229 60.7741 26.1813 60.8539 26.1431C61.593 25.7961 62.3079 25.928 62.6271 26.4901C62.9464 27.0523 62.7 27.8261 61.9886 28.2634C61.593 28.5098 61.1766 28.7249 60.7706 28.9574C58.1749 30.4056 55.5804 31.8538 52.987 33.3021C49.1999 35.4189 45.414 37.5403 41.6292 39.6663C39.4662 40.8739 37.3019 42.0769 35.1366 43.2753C34.8069 43.428 34.4495 43.539 34.1059 43.6848Z" fill="#161616"/>
<path d="M60.253 18.8972C60.248 19.0574 60.2081 19.2146 60.1362 19.3578C60.0643 19.5011 59.962 19.6269 59.8366 19.7266C59.6333 19.8909 59.4162 20.0372 59.1877 20.1639C56.1062 21.8087 53.0223 23.4489 49.9362 25.0845C46.6257 26.8543 43.3128 28.6229 39.9977 30.3904C39.6453 30.5887 39.2615 30.7249 38.8629 30.7929C38.616 30.84 38.3604 30.7982 38.1414 30.675C37.9223 30.5518 37.7538 30.3551 37.6657 30.1197C37.5882 29.8695 37.5907 29.6013 37.6728 29.3525C37.7549 29.1037 37.9126 28.8867 38.1238 28.7317C38.362 28.5647 38.6113 28.4139 38.8699 28.2806L50.8176 21.9198C53.2074 20.6474 55.596 19.375 57.9835 18.1026C58.2352 17.9612 58.5002 17.845 58.7747 17.7556C58.9486 17.718 59.1286 17.7189 59.3021 17.7581C59.4756 17.7974 59.6384 17.874 59.7792 17.9828C59.92 18.0915 60.0353 18.2297 60.1172 18.3876C60.199 18.5456 60.2454 18.7195 60.253 18.8972Z" fill="#161616"/>
<path d="M32.3841 28.5094C31.7733 28.5094 31.2459 28.1902 31.1661 27.8328C31.0724 27.4059 31.0099 26.9409 31.402 26.6078C31.7106 26.3477 32.0415 26.1155 32.391 25.9138C34.6698 24.6182 36.9531 23.3308 39.2411 22.0515L47.2502 17.5646C47.4731 17.4327 47.7051 17.3167 47.9443 17.2175C48.2077 17.0956 48.5073 17.077 48.7839 17.1653C49.0604 17.2537 49.2937 17.4426 49.4376 17.6947C49.5815 17.9468 49.6256 18.2438 49.5612 18.5268C49.4967 18.8098 49.3283 19.0584 49.0894 19.2233C48.7586 19.4636 48.4107 19.6793 48.0484 19.8687C45.0548 21.5506 42.0577 23.2302 39.0572 24.9074C37.1243 25.9901 35.1984 27.0797 33.262 28.152C32.9772 28.2896 32.684 28.409 32.3841 28.5094Z" fill="#161616"/>
<path d="M57.786 8.015C58.0798 8.00489 58.3694 8.08672 58.6145 8.24907C58.8596 8.41143 59.0479 8.64622 59.1532 8.92071C59.2244 9.14462 59.2213 9.38554 59.1444 9.60754C59.0675 9.82955 58.9208 10.0207 58.7264 10.1526C58.6408 10.2318 58.5479 10.3027 58.4488 10.3643C57.6368 10.8663 56.8271 11.3672 56.0197 11.8669C55.8701 11.9579 55.7134 12.0368 55.5512 12.1028C55.2868 12.2309 54.9844 12.2563 54.7024 12.1743C54.4203 12.0922 54.1788 11.9085 54.0243 11.6587C53.8622 11.4289 53.7957 11.1451 53.8391 10.8672C53.8825 10.5894 54.0323 10.3393 54.2568 10.17C55.2736 9.4447 56.3389 8.80272 57.4008 8.13992C57.5215 8.07761 57.6516 8.03541 57.786 8.015Z" fill="#161616"/>
</svg>

<svg xmlns="http://www.w3.org/2000/svg" width="71" height="55" fill="none" viewBox="0 0 71 55"><path fill="#161616" d="M50.062 5.652c1.159-.656 2.19-1.263 3.24-1.833 2.052-1.113 4.117-2.2 6.167-3.314.965-.52 1.791-.347 2.645.306a20.5 20.5 0 0 1 5.649 6.822 22.5 22.5 0 0 1 1.954 5.577c.322 1.387.51 2.803.562 4.226 0 .757.146 1.513.118 2.266a41 41 0 0 1-.451 5.039 23 23 0 0 1-.774 3.47 1.9 1.9 0 0 1-.947 1.18c-1.076.58-2.135 1.2-3.207 1.794q-7.385 4.092-14.78 8.172c-3.775 2.082-7.564 4.147-11.343 6.247Q31.7 49.57 24.507 53.55c-.694.375-1.342.798-2.196.767-.385 0-.777.219-1.17.316-1.388.347-2.724.111-4.053-.243a16.4 16.4 0 0 1-5.712-2.936 29.5 29.5 0 0 1-7.856-9.178 26.5 26.5 0 0 1-3.019-8.412 6.2 6.2 0 0 1 .201-3.026q.541-1.61 1.253-3.154c.194-.325.474-.589.809-.764 1.467-.895 2.953-1.766 4.434-2.637q4.22-2.478 8.447-4.952 4.334-2.544 8.675-5.101l14.62-8.6 6.413-3.75a4 4 0 0 1 .392-.198c.718-.347 1.218-.191 1.672.427.854 1.162 1.729 2.321 2.645 3.543m10.317-3.1c-1.041.563-1.954 1.042-2.87 1.57-1.708.95-3.418 1.89-5.112 2.866-2.956 1.7-5.9 3.425-8.849 5.135l-9.602 5.574c-2.672 1.547-5.333 3.123-8.023 4.64-2.776 1.56-5.552 3.102-8.21 4.83-.444.288-.878.593-1.364.923.52.298.965.52 1.37.798a13.5 13.5 0 0 1 3.63 3.751 25.7 25.7 0 0 1 3.436 8.072c.347 1.37.479 2.797.694 4.199q.006.175-.034.347c-.032.288-.07.576-.09.864-.074 1.04-.133 2.082-.216 3.123-.02.309-.104.614-.177 1.04q.74-.196 1.44-.502c1.846-.996 3.668-2.034 5.507-3.044 2.683-1.474 5.369-2.935 8.051-4.41q7.635-4.185 15.269-8.377c3.428-1.877 6.86-3.738 10.292-5.611.531-.292 1.041-.604 1.52-.871.073-.427.118-.77.188-1.11.428-1.96.677-3.955.746-5.96a30 30 0 0 0-.122-3.667 24 24 0 0 0-1.454-6.246A17.5 17.5 0 0 0 61.77 3.66c-.423-.385-.902-.722-1.388-1.107zM45.776 4.449c-.347.18-.625.319-.895.478q-5.236 3.082-10.473 6.167a4560 4560 0 0 1-12.52 7.332q-6.274 3.661-12.493 7.36c-1.582.934-3.168 1.857-4.74 2.801-.276.154-.513.37-.694.628a6.9 6.9 0 0 0-.837 5.445 25.5 25.5 0 0 0 2.856 7.09 26.9 26.9 0 0 0 6.628 7.613c1.85 1.447 3.86 2.606 6.247 2.929a4.68 4.68 0 0 0 3.032-.49 11.7 11.7 0 0 0 1.114-4.924c-.194.108-.295.156-.392.215-1.069.653-2.14 1.302-3.203 1.968a1.94 1.94 0 0 1-1.235.347 1.04 1.04 0 0 1-.94-1.416c.131-.39.412-.712.78-.895l2.53-1.558 2.374-1.472a12.2 12.2 0 0 0-1.319-5.028 1 1 0 0 0-.135.028l-3.436 2.082c-.923.559-1.839 1.124-2.776 1.68-.49.294-1.006.478-1.551.131a8.7 8.7 0 0 1-1.968-1.579 11.3 11.3 0 0 1-1.811-2.776 4 4 0 0 0-.309-.468c-.395.26-.718.513-1.076.694a1.12 1.12 0 0 1-1.284-.205c-.537-.503-.503-1.273.14-1.836.502-.437 1.04-.822 1.582-1.228 0-.062.017-.118.017-.177a2 2 0 0 0-.024-.26c-.3-1.532.007-3.12.857-4.428a12.4 12.4 0 0 1 3.47-3.519c.43-.298.885-.569 1.329-.843 2.155-1.34 4.282-2.724 6.468-4.001 3.877-2.263 7.798-4.449 11.691-6.684q7.243-4.164 14.47-8.349c.192-.111.369-.246.612-.41zm-31.242 36.02 6.267-3.817c-.277-.573-.506-1.107-.79-1.614s-.619-.961-.941-1.454c-.472.198-.889.4-1.326.548a2.8 2.8 0 0 1-.93.17 1.01 1.01 0 0 1-.964-.944 1.28 1.28 0 0 1 .694-1.304c.235-.14.489-.254.864-.444q-.78-.59-1.621-1.09a2.93 2.93 0 0 0-3.47.763 4.7 4.7 0 0 0-.947 3.939c.29 1.55.95 3.009 1.922 4.25.292.461.73.812 1.242.997"/><path fill="#fff" d="M14.535 40.468a2.46 2.46 0 0 1-1.246-.986 9.8 9.8 0 0 1-1.922-4.25 4.7 4.7 0 0 1 .947-3.94 2.93 2.93 0 0 1 3.47-.763q.84.5 1.62 1.09c-.374.19-.627.305-.863.444a1.28 1.28 0 0 0-.694 1.305 1.01 1.01 0 0 0 .964.944 2.8 2.8 0 0 0 .93-.17c.438-.15.854-.348 1.326-.549.323.493.66.958.94 1.454.282.496.514 1.041.792 1.614z"/><path fill="#161616" d="M30.885 40.665a1.1 1.1 0 0 1-1.09-.648 1.04 1.04 0 0 1 .104-1.16c.221-.268.49-.491.795-.659 3.241-1.784 6.496-3.543 9.744-5.316l13.957-7.634c2.582-1.413 5.164-2.825 7.756-4.217.286-.138.601-.207.92-.201a.99.99 0 0 1 .978.736 1.08 1.08 0 0 1-.253 1.21q-.294.263-.639.452-3.523 1.943-7.054 3.866-7.212 3.938-14.422 7.88-4.373 2.385-8.756 4.758c-.41.222-.805.468-1.225.67a7 7 0 0 1-.815.263M34.106 43.685a1.29 1.29 0 0 1-1.024-.694.944.944 0 0 1 .06-1.142c.245-.279.539-.511.867-.687 3.147-1.773 6.309-3.522 9.46-5.285q5.528-3.092 11.048-6.201l6.104-3.408q.114-.068.233-.125c.739-.347 1.454-.215 1.773.347.32.562.073 1.336-.638 1.773-.396.247-.812.462-1.218.694l-7.784 4.345a6175 6175 0 0 0-11.358 6.364q-3.245 1.811-6.492 3.61c-.33.152-.687.263-1.031.409M60.253 18.897a1.1 1.1 0 0 1-.416.83q-.306.246-.65.437a3560 3560 0 0 1-9.25 4.92q-4.966 2.655-9.94 5.306a3.5 3.5 0 0 1-1.134.403 1.065 1.065 0 0 1-1.197-.673 1.26 1.26 0 0 1 .458-1.388 6.4 6.4 0 0 1 .746-.451l11.948-6.361 7.166-3.817q.378-.213.79-.347a1.222 1.222 0 0 1 1.479 1.141M32.384 28.51c-.61 0-1.138-.32-1.218-.677-.094-.427-.156-.892.236-1.225q.465-.39.989-.694 3.418-1.944 6.85-3.863l8.01-4.486q.334-.198.693-.348a1.16 1.16 0 0 1 1.145 2.006q-.496.36-1.04.646a4738 4738 0 0 1-8.992 5.038c-1.933 1.083-3.859 2.173-5.795 3.245a7.5 7.5 0 0 1-.878.357M57.786 8.015a1.41 1.41 0 0 1 1.367.906 1.09 1.09 0 0 1-.427 1.232q-.128.119-.277.211l-2.43 1.503q-.224.136-.468.236a1.187 1.187 0 0 1-1.527-.444 1.083 1.083 0 0 1 .233-1.489c1.017-.725 2.082-1.367 3.144-2.03q.181-.094.385-.125"/></svg>
